X:1
T:Dermot Grogan's
R:jig
M:6/8
L:1/8
K:D
(3ABc|:dAF AFE|~D2D EDB,|A,B,D EDE|FAE ~E2A|
|dAF AFE|~D2D EDB,|A,B,D EDE|1 FAD D (3ABc:|2 FAD DB,A,|]
|:DFA ~d2f|ede fdB|~d2f edB|ABd ~e2f|
|edB BAF|EFD EDB,|A,B,D EDE|1 FAD DB,A,:|2 FAD D (3ABc|]